X:1
T:Jealous
T:Jealous
T:Jack Little
T:Tommie Malie, Dick Finch
C:Jack Little
Z:All Rights Reserved
L:1/8
M:2/2
K:G
V:1 treble 
%%MIDI program 40
%%MIDI control 7 100
%%MIDI control 10 64
V:1
 z4 z2 z ^C |:"D7" D3 ^D E3 =F | F3 G A3 ^A |"Gmaj7" B8- |"G6" B4-"Bbdim" B3 ^C |"D7" D3 ^D E3 =F | %6
w: I'm|Jeal- ous of the|moon that shines a-|bove,|* * be-|cause it smiles up-|
w: |Jeal- ous of the|pret- ty flow- ers|too.|* * I|miss the kiss they|
 F3 G A3 B |1"Gmaj7""G6" d8- ||"Gmaj7" d4-"G6" d3 ^c |"Dm7" d3 ^c"E7" =c3 B | %10
w: on the one I|love|* * I'm|Jeal- ous of the|
w: al- ways get from||||
"Dm7" d3 ^c"E7" =c3 B |"Em7" E8- |"A7" E4- E3 ^A |"Em7" B3 A"A7" G3 E |"Em7" B3 A"A7" G3 E | %15
w: bird- ies in the|trees,|* * they're|al ways sing- ing|sweet- est mel- o-|
w: |||||
"Am7" A8- |"D7" A4-"Bbdim" A3 ^C :|2"Bm7b5" e8- ||"E7" e4- e3 B |"Am" d3 c d3 c |"F7" d3 c d3 c | %21
w: dies.|* * I'm|you|* * I'm|Jeal- ous of the|"tick- tock" on the|
w: ||||||
"Gmaj7" B8- |"G6" B4-"Bbdim" B3 ^C |"D7" D3 ^D E3 =F | F3 G A3 B |"G""Eb7" G8- |"G" G6 z2 |] %27
w: shelf,|* * I'm|ev- en get- ting|Jeal- ous of my-|self.-||
w: ||||||

